app/images/dist/bubbles.svg

<svg width="19" height="19" viewBox="0 0 19 19" fill="none" xmlns="http://www.w3.org/2000/svg">
<path d="M15.812 12.7083C15.812 11.2159 15.2701 9.76957 14.283 8.66508C15.8895 7.38964 16.283 5.07546 15.1991 3.32009C14.1153 1.56473 11.8959 0.927012 10.0766 1.854C8.25076 2.78099 7.4056 4.95712 8.12818 6.90314C7.86366 6.98203 7.6056 7.08722 7.35398 7.20556C6.59269 6.02217 5.15398 5.49622 3.82495 5.91698C2.50237 6.33774 1.6056 7.60002 1.6314 9.01352C1.65721 10.427 2.59914 11.6564 3.94108 12.018C3.68947 14.2533 4.67011 16.4492 6.49592 17.718C8.32172 18.9869 10.683 19.1249 12.6379 18.073C14.5927 17.0277 15.812 14.9568 15.812 12.7083ZM11.8379 2.01836C13.3024 2.01836 14.5991 2.97165 15.0637 4.38514C15.5282 5.79864 15.0508 7.35677 13.8766 8.25089C12.7798 7.21871 11.3411 6.64016 9.85076 6.64016C9.45721 6.64016 9.06366 6.67961 8.67656 6.7585C8.25721 5.69345 8.38624 4.48376 9.0185 3.53047C9.65721 2.58376 10.7153 2.01836 11.8379 2.01836ZM2.19914 8.95435C2.19914 7.52113 3.34108 6.35746 4.74753 6.35746C6.15398 6.35746 7.29592 7.52113 7.29592 8.95435C7.29592 10.3876 6.15398 11.5512 4.74753 11.5512C3.34753 11.5512 2.2056 10.3876 2.19914 8.95435ZM4.47011 12.7083C4.47011 12.5111 4.48302 12.3139 4.50237 12.1166C4.58624 12.1232 4.66366 12.1298 4.74753 12.1298C5.79269 12.1298 6.76689 11.5973 7.34753 10.7097C7.92818 9.82217 8.02495 8.69795 7.6185 7.71836C7.92173 7.57373 8.24431 7.46196 8.57334 7.38307C8.99269 7.27788 9.42495 7.22528 9.85076 7.22528C12.825 7.22528 15.2379 9.68411 15.2379 12.7149C15.2379 15.7457 12.825 18.2045 9.85076 18.2045C6.88302 18.1979 4.47011 15.7391 4.47011 12.7083Z" fill="#222222"/>
<path d="M6.67007 4.23369C6.82491 4.23369 6.95394 4.1022 6.95394 3.94441C6.95394 3.78663 6.82491 3.65514 6.67007 3.65514C6.1991 3.65514 5.81846 3.26725 5.81846 2.78732C5.81846 2.62953 5.68943 2.49805 5.53459 2.49805C5.37975 2.49805 5.25072 2.62953 5.25072 2.78732C5.25072 3.26725 4.87007 3.65514 4.39911 3.65514C4.24427 3.65514 4.11523 3.78663 4.11523 3.94441C4.11523 4.1022 4.24427 4.23369 4.39911 4.23369C4.87007 4.23369 5.25072 4.62158 5.25072 5.10151C5.25072 5.25929 5.37975 5.39078 5.53459 5.39078C5.68943 5.39078 5.81846 5.25929 5.81846 5.10151C5.81846 4.62158 6.1991 4.23369 6.67007 4.23369ZM5.24427 3.94441C5.35394 3.85895 5.45717 3.76033 5.53459 3.64857C5.61846 3.76033 5.71523 3.86552 5.82491 3.94441C5.71523 4.02988 5.61201 4.1285 5.53459 4.24026C5.45717 4.1285 5.35394 4.02988 5.24427 3.94441Z" fill="#222222"/>
<path d="M16.0944 15.6005C15.9396 15.6005 15.8105 15.7319 15.8105 15.8897C15.8105 16.0475 15.9396 16.179 16.0944 16.179C16.5654 16.179 16.946 16.5669 16.946 17.0468C16.946 17.2046 17.0751 17.3361 17.2299 17.3361C17.3847 17.3361 17.5138 17.2046 17.5138 17.0468C17.5138 16.5669 17.8944 16.179 18.3654 16.179C18.5202 16.179 18.6493 16.0475 18.6493 15.8897C18.6493 15.7319 18.5202 15.6005 18.3654 15.6005C17.8944 15.6005 17.5138 15.2126 17.5138 14.7326C17.5138 14.5748 17.3847 14.4434 17.2299 14.4434C17.0751 14.4434 16.946 14.5748 16.946 14.7326C16.9396 15.2126 16.5589 15.6005 16.0944 15.6005ZM17.5202 15.8897C17.4105 15.9752 17.3073 16.0738 17.2299 16.1856C17.146 16.0738 17.0493 15.9686 16.9396 15.8897C17.0493 15.8043 17.1525 15.7056 17.2299 15.5939C17.3073 15.7056 17.4041 15.8043 17.5202 15.8897Z" fill="#222222"/>
<path d="M9.85752 16.4628C9.85752 15.9829 10.2382 15.595 10.7091 15.595C10.864 15.595 10.993 15.4635 10.993 15.3057C10.993 15.148 10.864 15.0165 10.7091 15.0165C10.2382 15.0165 9.85752 14.6286 9.85752 14.1486C9.85752 13.9909 9.72849 13.8594 9.57365 13.8594C9.41881 13.8594 9.28978 13.9909 9.28978 14.1486C9.28978 14.6286 8.90913 15.0165 8.43817 15.0165C8.28333 15.0165 8.1543 15.148 8.1543 15.3057C8.1543 15.4635 8.28333 15.595 8.43817 15.595C8.90913 15.595 9.28978 15.9829 9.28978 16.4628C9.28978 16.6206 9.41881 16.7521 9.57365 16.7521C9.72849 16.7521 9.85752 16.6272 9.85752 16.4628ZM9.28333 15.3123C9.393 15.2268 9.49623 15.1282 9.57365 15.0165C9.65752 15.1282 9.75429 15.2334 9.86397 15.3123C9.75429 15.3978 9.65107 15.4964 9.57365 15.6082C9.48978 15.4964 9.393 15.3912 9.28333 15.3123Z" fill="#222222"/>
<path d="M12.1225 13.2873C12.2773 13.2873 12.4064 13.1558 12.4064 12.998C12.4064 12.5181 12.787 12.1302 13.258 12.1302C13.4128 12.1302 13.5418 11.9987 13.5418 11.8409C13.5418 11.6831 13.4128 11.5516 13.258 11.5516C12.787 11.5516 12.4064 11.1637 12.4064 10.6838C12.4064 10.526 12.2773 10.3945 12.1225 10.3945C11.9676 10.3945 11.8386 10.526 11.8386 10.6838C11.8386 11.1637 11.458 11.5516 10.987 11.5516C10.8322 11.5516 10.7031 11.6831 10.7031 11.8409C10.7031 11.9987 10.8322 12.1302 10.987 12.1302C11.458 12.1302 11.8386 12.5181 11.8386 12.998C11.8386 13.1558 11.9676 13.2873 12.1225 13.2873ZM11.8322 11.8409C11.9418 11.7554 12.0451 11.6568 12.1225 11.5451C12.2064 11.6568 12.3031 11.762 12.4128 11.8409C12.3031 11.9264 12.1999 12.025 12.1225 12.1367C12.0451 12.025 11.9418 11.9264 11.8322 11.8409Z" fill="#222222"/>
<path d="M4.32036 18.4427C4.79133 18.4427 5.17198 18.0548 5.17198 17.5748C5.17198 17.0949 4.79133 16.707 4.32036 16.707C3.8494 16.707 3.46875 17.0949 3.46875 17.5748C3.46875 18.0548 3.8494 18.4427 4.32036 18.4427ZM4.32036 17.2856C4.4752 17.2856 4.60424 17.4171 4.60424 17.5748C4.60424 17.7326 4.4752 17.8641 4.32036 17.8641C4.16553 17.8641 4.03649 17.7326 4.03649 17.5748C4.03649 17.4171 4.15907 17.2856 4.32036 17.2856Z" fill="#222222"/>
<path d="M17.7911 13.4837C18.262 13.4837 18.6427 13.0958 18.6427 12.6159C18.6427 12.1359 18.262 11.748 17.7911 11.748C17.3201 11.748 16.9395 12.1359 16.9395 12.6159C16.9395 13.0958 17.3201 13.4837 17.7911 13.4837ZM17.7911 12.3266C17.9459 12.3266 18.0749 12.4581 18.0749 12.6159C18.0749 12.7737 17.9459 12.9051 17.7911 12.9051C17.6362 12.9051 17.5072 12.7737 17.5072 12.6159C17.5072 12.4581 17.6362 12.3266 17.7911 12.3266Z" fill="#222222"/>
<path d="M15.2442 1.95244C15.7152 1.95244 16.0958 1.56455 16.0958 1.08462C16.0958 0.604686 15.7152 0.216797 15.2442 0.216797C14.7732 0.216797 14.3926 0.604686 14.3926 1.08462C14.3926 1.56455 14.7732 1.95244 15.2442 1.95244ZM15.2442 0.801918C15.399 0.801918 15.5281 0.933406 15.5281 1.09119C15.5281 1.24898 15.399 1.38046 15.2442 1.38046C15.0894 1.38046 14.9603 1.24898 14.9603 1.09119C14.9603 0.926831 15.0829 0.801918 15.2442 0.801918Z" fill="#222222"/>
<path d="M16.657 10.1111C17.2828 10.1111 17.7925 9.59169 17.7925 8.95397C17.7925 8.31625 17.2828 7.79688 16.657 7.79688C16.0312 7.79688 15.5215 8.31625 15.5215 8.95397C15.5279 9.59169 16.0312 10.1111 16.657 10.1111ZM16.657 8.37542C16.9731 8.37542 17.2247 8.63182 17.2247 8.95397C17.2247 9.27611 16.9731 9.53252 16.657 9.53252C16.3408 9.53252 16.0892 9.27611 16.0892 8.95397C16.0892 8.63182 16.3473 8.37542 16.657 8.37542Z" fill="#222222"/>
<path d="M1.489 5.95677C2.11481 5.95677 2.62448 5.43739 2.62448 4.79967C2.62448 4.16196 2.11481 3.64258 1.489 3.64258C0.863193 3.64258 0.353516 4.16196 0.353516 4.79967C0.353516 5.43739 0.863193 5.95677 1.489 5.95677ZM1.489 4.22112C1.80513 4.22112 2.05674 4.47753 2.05674 4.79967C2.05674 5.12182 1.80513 5.37822 1.489 5.37822C1.17287 5.37822 0.921257 5.12182 0.921257 4.79967C0.921257 4.47753 1.17932 4.22112 1.489 4.22112Z" fill="#222222"/>
<path d="M11.2772 2.90541C11.2901 3.05663 11.4127 3.16839 11.5547 3.16839C11.9869 3.17496 12.8772 3.26043 13.4837 3.81926C13.8579 4.194 14.0772 4.68708 14.1095 5.21303C14.1159 5.36424 14.245 5.48258 14.3934 5.48258C14.5547 5.48258 14.6837 5.34452 14.6772 5.18016C14.6385 4.50299 14.3482 3.86528 13.8643 3.39192C13.1224 2.70161 12.0772 2.59642 11.5611 2.58984C11.3934 2.58984 11.2579 2.73448 11.2772 2.90541Z" fill="#222222"/>
<path d="M14.3733 12.998C14.2313 12.998 14.1087 13.1098 14.0958 13.2544C14.012 14.0565 13.4958 16.4562 10.3733 17.0019C10.2249 17.0282 10.1216 17.1662 10.141 17.324V17.3306C10.1604 17.4884 10.3087 17.6001 10.47 17.5738C13.9087 16.969 14.541 14.2603 14.6571 13.3202C14.67 13.1493 14.541 12.998 14.3733 12.998Z" fill="#222222"/>
</svg>

<svg width="19" height="19" fill="none" xmlns="http://www.w3.org/2000/svg"><path d="M15.812 12.708a6.072 6.072 0 00-1.529-4.043c1.607-1.275 2-3.59.916-5.345S11.896.927 10.077 1.854c-1.826.927-2.671 3.103-1.949 5.05a5.565 5.565 0 00-.774.302 3.084 3.084 0 00-3.53-1.289c-1.322.42-2.218 1.683-2.193 3.097.026 1.413.968 2.642 2.31 3.004-.252 2.235.73 4.431 2.555 5.7a5.864 5.864 0 006.142.355c1.955-1.045 3.174-3.116 3.174-5.365zm-3.974-10.69c1.464 0 2.761.954 3.226 2.367a3.493 3.493 0 01-1.187 3.866A5.881 5.881 0 009.85 6.64a5.94 5.94 0 00-1.174.117 3.52 3.52 0 01.341-3.228 3.409 3.409 0 012.82-1.512zM2.199 8.954c0-1.433 1.142-2.597 2.549-2.597 1.406 0 2.548 1.164 2.548 2.597 0 1.434-1.142 2.597-2.548 2.597-1.4 0-2.542-1.163-2.549-2.597zm2.271 3.754c0-.197.013-.394.032-.591.084.006.162.013.246.013a3.11 3.11 0 002.6-1.42 3.22 3.22 0 00.27-2.992 4.85 4.85 0 01.955-.335 5.27 5.27 0 011.278-.158c2.974 0 5.387 2.46 5.387 5.49 0 3.03-2.413 5.49-5.387 5.49-2.968-.007-5.38-2.466-5.38-5.497z" fill="#222"/><path d="M6.67 4.234a.29.29 0 000-.579.859.859 0 01-.852-.868.29.29 0 00-.283-.289.29.29 0 00-.284.29c0 .48-.38.867-.852.867a.29.29 0 000 .579.86.86 0 01.852.868.29.29 0 00.284.289.29.29 0 00.283-.29c0-.48.381-.867.852-.867zm-1.426-.29a1.39 1.39 0 00.29-.295 1.4 1.4 0 00.29.295 1.39 1.39 0 00-.29.296 1.39 1.39 0 00-.29-.296zM16.094 15.6a.29.29 0 000 .579.86.86 0 01.852.868c0 .158.13.29.284.29a.29.29 0 00.284-.29c0-.48.38-.868.851-.868a.29.29 0 000-.578.859.859 0 01-.851-.868.29.29 0 00-.284-.29.29.29 0 00-.284.29.866.866 0 01-.852.867zm1.426.29c-.11.085-.213.184-.29.296a1.39 1.39 0 00-.29-.296c.11-.086.212-.184.29-.296.077.112.174.21.29.296zm-7.662.573c0-.48.38-.868.851-.868a.29.29 0 000-.579.86.86 0 01-.851-.867.29.29 0 00-.284-.29.29.29 0 00-.284.29c0 .48-.38.868-.852.868a.29.29 0 000 .578.86.86 0 01.852.868c0 .158.129.29.284.29a.285.285 0 00.284-.29zm-.575-1.15c.11-.086.213-.185.29-.296.085.111.181.216.291.295a1.39 1.39 0 00-.29.296 1.39 1.39 0 00-.29-.296zm2.84-2.026a.29.29 0 00.283-.289.86.86 0 01.852-.868.29.29 0 000-.578.859.859 0 01-.852-.868.29.29 0 00-.284-.29.29.29 0 00-.283.29.86.86 0 01-.852.868.29.29 0 000 .578.86.86 0 01.852.868c0 .158.129.29.284.29zm-.29-1.446c.109-.086.212-.184.29-.296.083.112.18.217.29.296a1.39 1.39 0 00-.29.296 1.393 1.393 0 00-.29-.296zM4.32 18.443a.859.859 0 00.852-.868c0-.48-.38-.868-.852-.868a.859.859 0 00-.851.868c0 .48.38.868.851.868zm0-1.157a.29.29 0 010 .578.29.29 0 01-.284-.29c0-.157.123-.288.284-.288zm13.471-3.802a.86.86 0 00.852-.868.86.86 0 00-.852-.868.859.859 0 00-.852.868c0 .48.381.868.852.868zm0-1.157a.29.29 0 010 .578.29.29 0 010-.578zM15.244 1.952a.859.859 0 00.852-.867c0-.48-.38-.868-.852-.868a.859.859 0 00-.851.868c0 .48.38.867.851.867zm0-1.15a.29.29 0 010 .578.29.29 0 01-.284-.289c0-.164.123-.29.284-.29zm1.413 9.309c.626 0 1.136-.52 1.136-1.157 0-.638-.51-1.157-1.136-1.157-.626 0-1.136.52-1.136 1.157.007.638.51 1.157 1.136 1.157zm0-1.736a.57.57 0 01.568.579.57.57 0 01-.568.579.57.57 0 01-.568-.579c0-.322.258-.579.568-.579zM1.489 5.957c.626 0 1.135-.52 1.135-1.157 0-.638-.51-1.157-1.135-1.157-.626 0-1.135.519-1.135 1.157 0 .637.51 1.157 1.135 1.157zm0-1.736a.57.57 0 01.568.579.57.57 0 01-.568.578.57.57 0 01-.568-.578c0-.322.258-.579.568-.579zm9.788-1.316a.283.283 0 00.278.263c.432.007 1.322.092 1.929.651.374.375.593.868.626 1.394.006.151.135.27.283.27.162 0 .29-.138.284-.303a2.719 2.719 0 00-.813-1.788c-.742-.69-1.787-.796-2.303-.802a.285.285 0 00-.284.315zm3.096 10.093a.282.282 0 00-.277.256c-.084.803-.6 3.202-3.723 3.748a.287.287 0 00-.232.322v.007c.02.157.168.27.329.243 3.439-.605 4.071-3.314 4.187-4.254.013-.17-.116-.322-.284-.322z" fill="#222"/></svg>
